X:1
T:Title
%%score { ( 1 3 ) | ( 2 4 ) }
L:1/8
M:3/4
K:E
V:1 treble nm="Grand Piano"
V:3 treble 
V:2 bass 
V:4 bass 
V:1
 z2 z2[Q:1/4=100] EF | G3 B cB | G2 E2 DE | [DF][EG] [GB]2 [FA]2 |[M:2/4] [FA]2 [EG]2 | %5
[M:1/4] [EG][FA] |[M:3/4] [GB][GB] [Ge]2 [Bd]2 | [Bd]2 c2 Ac | BG [FA]2 [EG]2 |[M:2/4] [DF]4 | %10
[M:1/4] EF |[M:3/4] G3 B cB | G2 E2 DE | [DF][EG] [GB]2 [FA]2 |[M:2/4] [FA]2 [EG]2 | %15
[M:1/4] [EG][FA] |[M:3/4] [GB][EG] [Ge]2 d2 |[M:7/8] d2 c3 [CA][CF] | %18
[M:3/4] [B,E][EG] [DG]2 [DF]2 |[M:2/4] E4 |[M:1/4] GG |[M:3/4] [DF]3 [EG] [FA][GB] | [FA]2 G2 GG | %23
 [DF][EG] [FA]2 [Ac]2 |[M:2/4] [Ac]2 [GB]2 |[M:1/4] [GB][Ge] |[M:3/4] [Bd][Ac] [Ac]2 [Bd]2 | %27
 [Ac]2 [GB]2 [FA]G | z2 z2 ^A2 |[M:5/8] [DB]-[DB]- [DB]3 |[M:1/4] EF |[M:3/4] G3 B cB | G2 E2 DE | %33
 [DF][EG] [GB]2 [FA]2 |[M:2/4] [FA]2 [EG]2 |[M:1/4] [EG][FA] |[M:3/4] [GB][EG] [Ge]2 d2 | %37
[M:7/8] d2 c3 [CA][CF] |[M:3/4] [B,E][EG] [DG]2 [DF]2 |[M:6/4] .E6 z6 |] %40
V:2
 z2 z2 [E,G,][E,A,E] | [E,B,E]3 [E,G,E] [E,A,E][E,G,E] | [E,B,E]2 [E,G,B,]2 [F,A,B,][E,G,B,] | %3
 [B,,B,][B,,B,] [B,,B,]2 [B,,B,]2 |[M:2/4] [E,B,]2 [E,B,]2 |[M:1/4] [E,B,][E,B,] | %6
[M:3/4] [E,E][E,E] [E,B,]2[K:treble] [G,E]2 | [A,E]2 [A,EA]2 [A,CE][A,E] | %8
 [E,G,E][E,B,E] [D,B,]2 [E,B,]2 |[M:2/4] [B,,B,]4 |[M:1/4] [E,G,][E,A,E] | %11
[M:3/4] [E,B,E]3 [E,G,E] [E,A,E][E,G,E] | [E,B,E]2 [E,G,B,]2 [F,A,B,][E,G,B,] | %13
 [B,,B,][B,,B,] [B,,B,]2 [B,,B,]2 |[M:2/4] [E,B,]2 [E,B,]2 |[M:1/4] [E,B,][E,B,] | %16
[M:3/4] [E,E][E,B,] [E,B,]2 [G,B,E]2 |[M:7/8] [A,B,E]2 [A,E]3 [A,,E,][A,,A,] | %18
[M:3/4] [B,,G,][B,,B,] [B,,B,]2 [B,,A,]2 |[M:2/4] [E,G,]4 |[M:1/4] [E,B,E][E,B,E] | %21
[M:3/4] [B,,B,]3 [B,,B,] [B,,B,][B,,B,] | [E,B,]2 [E,B,E]2 [E,B,E][E,B,E] | %23
 [B,,B,][B,,B,] [B,,B,]2 [D,B,]2 |[M:2/4] [E,E]2 [E,E]2 |[M:1/4] [E,E][E,E] | %26
[M:3/4] [A,E][A,E] [A,E]2 [A,E]2 | [E,E]2 [E,E]2 [E,B,][E,B,E] | [F,B,D][F,B,D] [F,CE]2 .[F,CE]2 | %29
[M:5/8] F,2 z z2 |[M:1/4] [E,G,][E,A,E] |[M:3/4] [E,B,E]3 [E,G,E] [E,A,E][E,G,E] | %32
 [E,B,E]2 [E,G,B,]2 [F,A,B,][E,G,B,] | [B,,B,][B,,B,] [B,,B,]2 [B,,B,]2 |[M:2/4] [E,B,]2 [E,B,]2 | %35
[M:1/4] [E,B,][E,B,] |[M:3/4] [E,E][E,B,] [E,B,]2 [G,B,E]2 | %37
[M:7/8] [A,B,E]2 [A,E]3 [A,,E,][A,,A,] |[M:3/4] [B,,G,][B,,B,] [B,,B,]2 [B,,A,]2 | %39
[M:6/4] .[E,G,]6 z6 |] %40
V:3
 x6 | x6 | x6 | x6 |[M:2/4] x4 |[M:1/4] x2 |[M:3/4] x6 | x6 | x6 |[M:2/4] x4 |[M:1/4] x2 | %11
[M:3/4] x6 | x6 | x6 |[M:2/4] x4 |[M:1/4] x2 |[M:3/4] x6 |[M:7/8] x7 |[M:3/4] x6 |[M:2/4] x4 | %20
[M:1/4] x2 |[M:3/4] x6 | x6 | x6 |[M:2/4] x4 |[M:1/4] x2 |[M:3/4] x6 | x6 | FB B2 z F, | %29
[M:5/8] z2 A,3 |[M:1/4] x2 |[M:3/4] x6 | x6 | x6 |[M:2/4] x4 |[M:1/4] x2 |[M:3/4] x6 |[M:7/8] x7 | %38
[M:3/4] x6 |[M:6/4] x12 |] %40
V:4
 x6 | x6 | x6 | x6 |[M:2/4] x4 |[M:1/4] x2 |[M:3/4] x4[K:treble] x2 | x6 | x6 |[M:2/4] x4 | %10
[M:1/4] x2 |[M:3/4] x6 | x6 | x6 |[M:2/4] x4 |[M:1/4] x2 |[M:3/4] x6 |[M:7/8] x7 |[M:3/4] x6 | %19
[M:2/4] x4 |[M:1/4] x2 |[M:3/4] x6 | x6 | x6 |[M:2/4] x4 |[M:1/4] x2 |[M:3/4] x6 | x6 | x6 | %29
[M:5/8] B,,-B,,- B,,3 |[M:1/4] x2 |[M:3/4] x6 | x6 | x6 |[M:2/4] x4 |[M:1/4] x2 |[M:3/4] x6 | %37
[M:7/8] x7 |[M:3/4] x6 |[M:6/4] x12 |] %40

